X: 67
T:Lady Of The Lake
% Nottingham Music Database
S:via PR
M:4/4
L:1/4
K:G
B,/2A,/2|"G"G,/2B,/2D/2G/2 B/2A/2G/2B/2|d/2B/2G/2A/2 B/2A/2G/2B/2|\
"C"c/2d/2c/2B/2 A/2G/2F/2G/2|"D"A/2G/2F/2E/2 D/2C/2B,/2A,/2|
"G"G,/2B,/2D/2G/2 B/2A/2G/2B/2|"G"d/2B/2G/2A/2 B/2A/2G/2B/2|\
"C"c/2d/2c/2B/2 A/2G/2F/2E/2|"D"D/2F/2A/2F/2 "G"G::
B/2c/2|"G"d/2c/2B/2d/2 gg/2B/2|"C"c/2B/2A "A7"a3/2g/2|"D"ff/2g/2 f/2e/2d/2f/2|\
"A"e/2d/2^c/2e/2 "D"dB/2=c/2|
"G"d/2c/2B/2d/2 gg/2B/2|"C"c/2B/2A "A7"a3/2g/2|"D"f/2e/2d/2B/2 c/2A/2F/2D/2|\
"G"GB G:|


